icons/op-workflow-24.svg

<svg width="24" height="24" viewBox="0 0 24 24" fill="none" xmlns="http://www.w3.org/2000/svg">
<path d="M17.7008 13.3016L17.6063 13.4921C17.0394 16.0635 14.7087 17.8095 12.0315 17.8095C10.6457 17.8095 9.32283 17.2381 8.31496 16.3492L9.6063 15.4286L4.8189 13.1746L5.25984 18.3492L6.3622 17.619C7.84252 19.1111 9.85827 20 12.0315 20C15.937 20 19.2441 17.4603 19.9055 13.6825L20 13.3016H17.7008ZM6.3937 10.7937C6.96063 8.22222 9.29134 6.34921 11.9685 6.34921C13.3543 6.34921 14.6772 6.85714 15.685 7.74603L14.3937 8.63492L19.1811 10.5714L18.7402 5.52381L17.6378 6.34921C16.1575 4.85714 14.1417 4 11.9685 4C8.06299 4 4.75591 6.79365 4.09449 10.5714L4 11.2381H6.29921L6.3937 10.7937Z" fill="black"/>
</svg>

<svg xmlns="http://www.w3.org/2000/svg" width="24" height="24" viewBox="0 0 24 24"><path d="m17.701 13.302-.095.19c-.567 2.572-2.897 4.317-5.575 4.317-1.385 0-2.708-.571-3.716-1.46l1.291-.92-4.787-2.254.441 5.174 1.102-.73A7.975 7.975 0 0 0 12.031 20c3.906 0 7.213-2.54 7.874-6.318l.095-.38h-2.299ZM6.394 10.794c.567-2.572 2.897-4.445 5.575-4.445 1.385 0 2.708.508 3.716 1.397l-1.291.889 4.787 1.936-.441-5.047-1.102.825A7.946 7.946 0 0 0 11.969 4c-3.906 0-7.213 2.794-7.875 6.571L4 11.238h2.299l.095-.444Z"/></svg>
